X:1
T:Wonderful, Wonderful Jesus
T:Ernest Orlando Sellers
T:Wonderful, Wonderful Jesus
T:Public Domain
T:Public Domain
C:Ernest Orlando Sellers
Z:Public Domain
%%score ( 1 2 ) ( 3 4 )
L:1/8
M:6/8
K:Bb
V:1 treble 
V:2 treble 
V:3 bass 
V:4 bass 
V:1
 [DF]/[DF]/ | [DF]>[DF][DF] [EF]2 [EF] | F3 [DF]2 [DF]/[DF]/ | %3
w: 1.~There is|ne- ver a day so|drear- y, There is|
w: 2.~There is|ne- ver a cross so|hea- vy, There is|
w: 3.~There is|ne- ver a care or|bur- den, There is|
w: 4.~There is|ne- ver a guilt- y|sin- ner, There is|
 [EG]>[EG][EG] [FG]2 [FG] [EG]3- [EG]2 [EG]/[EG]/ | [EA]>[EA][EA] (AG)[FA] | [FB]3 [Fd]2 [Fd] | %6
w: ver a night so long, But * the soul|that is trusting in * Je-|Will some- where|
w: ver a weight of woe, But * that Je-|sus will help to * car-|Be- cause He|
w: ver a grief or loss, But * that Je-|sus in love will * light-|When car- ried|
w: ver a wand- ering one, But * that God|can in mer- cy * par-|Through Je- sus|
 ([Fc][CF])[=EB] [Ec]2 [EG] | (F2- [DF-] [EF]3) ||"^Refrain" [Fd]>[Ec][DB] [DF][DG][DB] | %9
w: find * a song. *|||
w: lov- * eth so. *|||
w: to * the cross. *|||
w: Christ, * His Son. *|||
 [EB]3 [EA]2 [EA]/[EB]/ | [Ec][D=B][Ec] FAe | [Fd]3- [Fd]2 [DF] | [FB][FB][FB] [Fc][Fc]F | %13
w: ||||
w: ||||
w: ||||
w: ||||
 [Fd][Fd][_Af] [Ge]2 [Gd]/[Gc]/ | [FB][FB][=EB] [_EB]<[EA][Ec] | D2 E [DB]2 |] %16
w: |||
w: |||
w: |||
w: |||
V:2
 x | x6 | F3 x3 | x12 | x3 E2 x | x6 | x6 | F2 x4 || x6 | x6 | x3 EEG | x6 | x6 | x6 | x6 | %15
w: ||ne-||sus|||||||||||
w: ||ne-||ry|||||||||||
w: ||ne-||en|||||||||||
w: ||ne-||don|||||||||||
 B3- x2 |] %16
w: |
w: |
w: |
w: |
V:3
 [B,,B,]/[B,,B,]/ | [B,,B,]>[B,,B,][B,,B,] [C,A,]2 [C,A,] | [D,B,]3 [B,,B,]2 [B,,B,]/[B,,B,]/ | %3
w: ~ ~|~ ~ ~ ~ ~|~ ~ ~ ~|
 [E,B,]>[E,B,][E,B,] [D,=B,]2 [D,B,] C,2 E, [G,C]2 [C,C]/[C,C]/ | [F,C]>[F,C][F,C] (CB,)[E,C] | %5
w: ~ ~ ~ ~ ~ ~ ~ ~ ~ ~|~ ~ ~ ~ * ~|
 [D,B,]3 [B,,B,]2 [B,,B,] | [C,A,]2 [C,D] [C,C]2 [C,B,] | A,2 B, [F,C]3 || %8
w: ~ ~ ~|~ ~ ~ Won-|der- ful, won-|
 [B,,B,]>[B,,B,][B,,B,] [B,,B,][B,,F,][B,,F,] | [C,F,]3 [F,C]2 [F,C]/[F,B,]/ | %10
w: ful Je- sus, In the heart|He im- plant- eth|
 [F,A,][F,_A,][F,=A,] [F,A,][F,C][F,A,] | (B,,D,F, B,2) [B,,B,] | %12
w: a song: A song of de-|liv- * * * erance,|
 [D,B,][D,B,][D,B,] [F,A,][F,A,][E,A,] | [D,B,][B,,B,][D,B,] [E,B,]2 [E,=B,]/[E,C]/ | %14
w: cour- age, of strength, In the|heart He im- plant- eth a|
 [F,D][F,D][F,C] [F,C]<[F,C][F,A,] | B,2 G, [B,,F,]2 |] %16
w: song. * * * * *||
V:4
 x | x6 | x6 | x6 C3- x3 | x3 F,2 x | x6 | x6 | F,3- x3 || x6 | x6 | x6 | B,3- x3 | x6 | x6 | x6 | %15
w: |||~|~|||der-||||of||||
 B,,3- x2 |] %16
w: |

